src/components/icon/assets/search.svg

<?xml version="1.0" encoding="UTF-8"?>
<svg width="24px" height="24px" viewBox="0 0 24 24" version="1.1" xmlns="http://www.w3.org/2000/svg" xmlns:xlink="http://www.w3.org/1999/xlink">
    <!-- Generator: Sketch 60 (88103) - https://sketch.com -->
    <title>Search</title>
    <desc>Created with Sketch.</desc>
    <g id="Search" stroke="none" stroke-width="1" fill="none" fill-rule="evenodd">
        <path d="M9.63509203,4 C12.7391107,4 15.2701841,6.37104274 15.2701841,9.31497903 C15.2701841,10.5671363 14.8122893,11.7156519 14.0471717,12.6221635 L20,19.0650386 L18.9640728,20 L13.018767,13.5655448 C12.0754719,14.234295 10.9030865,14.6299581 9.63509203,14.6299581 C6.53107333,14.6299581 4,12.2589153 4,9.31497903 C4,6.37104274 6.53107333,4 9.63509203,4 Z M9.63509203,5.38651627 C7.28954232,5.38651627 5.40286761,7.15390338 5.40286761,9.31497903 C5.40286761,11.4760547 7.28954232,13.2434418 9.63509203,13.2434418 C10.540346,13.2434418 11.3772488,12.9801827 12.0637191,12.5326359 L12.0397589,12.5057379 L13.0756861,11.5707766 L13.0891351,11.584915 C13.579576,10.942857 13.8673164,10.1589391 13.8673164,9.31497903 C13.8673164,7.15390338 11.9806417,5.38651627 9.63509203,5.38651627 Z" id="Combined-Shape" fill="#000000"></path>
    </g>
</svg>

<svg xmlns="http://www.w3.org/2000/svg" viewBox="0 0 24 24"><path d="M9.635 4c3.104 0 5.635 2.371 5.635 5.315 0 1.252-.458 2.4-1.223 3.307L20 19.065 18.964 20l-5.945-6.434a5.838 5.838 0 01-3.384 1.064C6.531 14.63 4 12.259 4 9.315 4 6.371 6.531 4 9.635 4zm0 1.387c-2.345 0-4.232 1.767-4.232 3.928s1.887 3.928 4.232 3.928c.905 0 1.742-.263 2.429-.71l-.024-.027 1.036-.935.013.014c.49-.642.778-1.426.778-2.27 0-2.161-1.886-3.928-4.232-3.928z" fill-rule="evenodd"/></svg>
